X: 35766
T: Sally Gally
R: jig
M: 6/8
K: Gmajor
e3 edB|A3 AGA|B2 e d2 B|G3 GAB|
c2 c B2 A|G2 E D2 d|DGG GAB|A3 ABd|
e3 edB|A3 AGA|B2 e d2 B|E3 EGA|
B3 d2 B|A2 G B2 D|D3 DBA|G3 GBd||
e2 d efg|e2 d B2 e|d2 e dBd|d3 dBd|
e2 d efg|e2 d B2 d|GAB deB|A3 AGA|
B2 d d2 B|A3 AGA|B2 e d2 B|E3 EGA|
B3 d2 B|A2 G B2 D|D3 DBA|G3 GBd||

